src/16/actions/kdenlive-show-markers.svg

<svg xmlns="http://www.w3.org/2000/svg" width="16" height="16" viewBox="0 0 16 16">
 <defs>
  <style id="current-color-scheme" type="text/css">
   .ColorScheme-Text { color:#565656; } .ColorScheme-Highlight { color:#5294e2; }
  </style>
 </defs>
 <path style="fill:currentColor" class="ColorScheme-Text" d="M 1 1.015625 L 1 15.015625 L 15 15.015625 L 15 1.015625 L 1 1.015625 z M 4.4335938 6.8496094 L 6.7578125 6.8496094 C 6.8138129 6.8496094 6.8469289 6.8740344 6.859375 6.9238281 L 8.9042969 13.009766 C 8.916743 13.040893 8.9131981 13.072249 8.8945312 13.103516 C 8.8758645 13.134783 8.8443356 13.150391 8.8007812 13.150391 L 6.90625 13.150391 C 6.8875832 13.150391 6.8647266 13.143459 6.8398438 13.130859 C 6.8211769 13.112193 6.8089551 13.091144 6.8027344 13.066406 L 6.3652344 11.666016 L 4.7773438 11.666016 C 4.7213433 11.902477 4.6602434 12.138585 4.5917969 12.375 C 4.5295758 12.605255 4.4700629 12.836184 4.4140625 13.066406 C 4.4019291 13.122407 4.3652682 13.150391 4.3027344 13.150391 L 2.5097656 13.150391 C 2.4662113 13.150391 2.4346824 13.134783 2.4160156 13.103516 C 2.3973488 13.072389 2.395757 13.041033 2.4082031 13.009766 L 4.3320312 6.9238281 C 4.3441647 6.8738944 4.3775933 6.8496094 4.4335938 6.8496094 z M 5.5253906 8.4746094 C 5.5191699 8.5056896 5.510493 8.5425372 5.4980469 8.5859375 C 5.4918215 8.6294778 5.4847363 8.6659941 5.4785156 8.6972656 C 5.4536281 8.8030597 5.4272313 8.9063187 5.4023438 9.0058594 C 5.3774562 9.0991934 5.3514254 9.18831 5.3203125 9.2753906 L 5.328125 9.2753906 C 5.2845707 9.4558519 5.2443649 9.6115199 5.2070312 9.7421875 C 5.1696977 9.8728551 5.1259516 10.02857 5.0761719 10.208984 L 6.0566406 10.208984 C 6.0068609 10.053443 5.9595699 9.8977753 5.9160156 9.7421875 C 5.8724613 9.5804397 5.8271234 9.424725 5.7773438 9.2753906 C 5.7462309 9.1758499 5.7076168 9.0709852 5.6640625 8.9589844 C 5.6267289 8.8469836 5.5936129 8.7386066 5.5625 8.6328125 L 5.5722656 8.6425781 C 5.5598195 8.5991311 5.5491895 8.572473 5.5429688 8.5664062 C 5.5429688 8.5538062 5.5465137 8.5488281 5.5527344 8.5488281 L 5.5429688 8.5390625 C 5.5429688 8.5266491 5.5378367 8.5058763 5.5253906 8.4746094 z M 10.679688 11.75 A 0.700005 0.700005 0 0 1 11.380859 12.449219 A 0.700005 0.700005 0 0 1 10.679688 13.150391 A 0.700005 0.700005 0 0 1 9.9804688 12.449219 A 0.700005 0.700005 0 0 1 10.679688 11.75 z M 12.900391 11.75 A 0.700005 0.700005 0 0 1 13.599609 12.449219 A 0.700005 0.700005 0 0 1 12.900391 13.150391 A 0.700005 0.700005 0 0 1 12.199219 12.449219 A 0.700005 0.700005 0 0 1 12.900391 11.75 z"/>
</svg>

<svg xmlns="http://www.w3.org/2000/svg" width="16" height="16"><defs><style id="current-color-scheme" type="text/css"></style></defs><path d="M1 1.016v14h14v-14H1zM4.434 6.85h2.324c.056 0 .089.024.101.074l2.045 6.086a.101.101 0 0 1-.01.094c-.018.03-.05.046-.093.046H6.906a.155.155 0 0 1-.066-.02.136.136 0 0 1-.037-.064l-.438-1.4H4.777c-.056.236-.117.473-.185.709-.062.23-.122.461-.178.691-.012.056-.049.084-.111.084H2.51c-.044 0-.075-.015-.094-.046a.1.1 0 0 1-.008-.094l1.924-6.086c.012-.05.046-.074.102-.074zm1.091 1.625a1.4 1.4 0 0 1-.027.11 2 2 0 0 1-.02.112c-.024.106-.05.21-.076.309-.025.093-.05.182-.082.27h.008c-.043.18-.084.336-.121.466-.037.13-.081.287-.13.467h.98c-.05-.156-.097-.311-.141-.467a8.318 8.318 0 0 0-.252-.783 9.5 9.5 0 0 1-.101-.326l.01.01a.26.26 0 0 0-.03-.077c0-.012.004-.017.01-.017l-.01-.01a.2.2 0 0 0-.018-.064zm5.155 3.275a.7.7 0 0 1 .7.7.7.7 0 0 1-.7.7.7.7 0 0 1-.7-.7.7.7 0 0 1 .7-.7zm2.22 0a.7.7 0 0 1 .7.7.7.7 0 0 1-.7.7.7.7 0 0 1-.7-.7.7.7 0 0 1 .7-.7z" fill="currentColor" color="#565656"/></svg>
